X: 3
T: Pollonesse #3
M: 3/4
L: 1/16
K: D
Q:120
d2(dc) d2f2 A4|B2(BA) B2d2F4|G2GF E2g2 f2ed|d2cd edcB A4|d2dc d2f2 A4|
B2BA B2d2 F4|G2GF E2g2 f2(ed)|e2e2d4D4:|f2(fd) f2(fd) gfed|
e2(ec) e2(ec) fedc|d2dc B2d2 c2BA|B2B2A4A,4|B2BG B2BG cBAG|
A2AF A2AF BAGF|G2GF E2g2 f2ed|e2e2d4D4:|

